common/src/main/resources/files/plugins/javascript/TypeScriptFile.svg

<svg xmlns="http://www.w3.org/2000/svg" width="16" height="16" fill="#42A5F5" data-big="true" viewBox="0 0 24 24"><path d="M3 3h18v18H3zm10.71 14.86c.5.98 1.51 1.73 3.09 1.73 1.6 0 2.8-.83 2.8-2.36 0-1.41-.81-2.04-2.25-2.66l-.42-.18c-.73-.31-1.04-.52-1.04-1.02 0-.41.31-.73.81-.73.48 0 .8.21 1.09.73l1.31-.87c-.55-.96-1.33-1.33-2.4-1.33-1.51 0-2.48.96-2.48 2.23 0 1.38.81 2.03 2.03 2.55l.42.18c.78.34 1.24.55 1.24 1.13 0 .48-.45.83-1.15.83-.83 0-1.31-.43-1.67-1.03zM13 11.25H8v1.5h1.5V20h1.75v-7.25H13z"/></svg>

<!--
  - The MIT License (MIT)
  -
  - Copyright (c) 2015-2024 Elior "Mallowigi" Boukhobza
  -
  - Permission is hereby granted, free of charge, to any person obtaining a copy
  - of this software and associated documentation files (the "Software"), to deal
  - in the Software without restriction, including without limitation the rights
  - to use, copy, modify, merge, publish, distribute, sublicense, and/or sell
  - copies of the Software, and to permit persons to whom the Software is
  - furnished to do so, subject to the following conditions:
  -
  - The above copyright notice and this permission notice shall be included in all
  - copies or substantial portions of the Software.
  -
  - THE SOFTWARE IS PROVIDED "AS IS", WITHOUT WARRANTY OF ANY KIND, EXPRESS OR
  - IMPLIED, INCLUDING BUT NOT LIMITED TO THE WARRANTIES OF MERCHANTABILITY,
  - FITNESS FOR A PARTICULAR PURPOSE AND NONINFRINGEMENT. IN NO EVENT SHALL THE
  - AUTHORS OR COPYRIGHT HOLDERS BE LIABLE FOR ANY CLAIM, DAMAGES OR OTHER
  - LIABILITY, WHETHER IN AN ACTION OF CONTRACT, TORT OR OTHERWISE, ARISING FROM,
  - OUT OF OR IN CONNECTION WITH THE SOFTWARE OR THE USE OR OTHER DEALINGS IN THE
  - SOFTWARE.
  -->

<svg data-big="true" xmlns="http://www.w3.org/2000/svg" version="1.1" width="16px" height="16px" fill="#42A5F5"
     viewBox="0 0 24 24">
  <path
    d="M3,3H21V21H3V3M13.71,17.86C14.21,18.84 15.22,19.59 16.8,19.59C18.4,19.59 19.6,18.76 19.6,17.23C19.6,15.82 18.79,15.19 17.35,14.57L16.93,14.39C16.2,14.08 15.89,13.87 15.89,13.37C15.89,12.96 16.2,12.64 16.7,12.64C17.18,12.64 17.5,12.85 17.79,13.37L19.1,12.5C18.55,11.54 17.77,11.17 16.7,11.17C15.19,11.17 14.22,12.13 14.22,13.4C14.22,14.78 15.03,15.43 16.25,15.95L16.67,16.13C17.45,16.47 17.91,16.68 17.91,17.26C17.91,17.74 17.46,18.09 16.76,18.09C15.93,18.09 15.45,17.66 15.09,17.06L13.71,17.86M13,11.25H8V12.75H9.5V20H11.25V12.75H13V11.25Z"/>
</svg>
